X:1
T:Seamamhac Tubestation
S: Rob Greenway <robgreenway:yahoo.com> IrishTradAccord 2005-2-2
M:6/8
L:1/8
R:Double Jig
C:John Carty
K:Gm
A|GFD DCD|GBc d3|dcA cAF|GED CDF|!
GFD DCD|GBc d3|dcA cAF|1 ~G3 G2:|2 ~G3 GBc|!
d3 dcA|c3 cAc|dcA cAF|GED C3|!
d3 dcA|c3 gfd|dcA cAF|~G3 GBc|!
d3 dcA|c3 cAc|dcA cAF|GED CDF|!
GFD GFD|GFD GFD|dcA dcA|~G3 G2||!
